X: 38803
T: Suckey's Delight
R: jig
M: 6/8
K: Gmajor
|:g2f e2d|efg d3|c2B A2G|ABG FED|
g2f e2d|efg d2c|BGB AFA|G3 G3:|
|:B2C d2=f|e2d c2B|A2B c2e|d2c B2A|
G2A B2d|c2B A2G|FAG FED|FAG FED|
dBg ecg|dBg ecg|BGB AFA|G3 G3:|

